X:1
T:N. Barrington, CM
T:N. Barrington, CM
T:Scott Werdebaugh, 2007
T:© 2007 Scott Werdebaugh &amp; New Heart Music. May copy &amp; use freely for Christian worship &amp; devotions with no alteration. All other rights reserved.
C:Scott Werdebaugh, 2007
Z:© 2007 Scott Werdebaugh & New Heart Music. May copy & use freely for
Z:Christian worship & devotions with no alteration. All other rights reserved.
%%score ( 1 2 ) ( 3 4 )
L:1/8
Q:1/4=116
M:4/4
K:Bb
V:1 treble 
V:2 treble 
V:3 bass 
V:4 bass 
V:1
"^With conviction" [DF]2 [DF][CE] [B,D]2 [DF]2 | [CE]3 [B,D] [A,C]4 | %2
 [B,D]2 [B,D][CE] [DF]2 [B,D]2 | [A,C]8 | [B,D]2 [B,D][CE] [DF]2 [DF]2 | [EG]3 [FA] [DB]4 | %6
 [EB]2 [DF][CE] [B,D]2 [A,C]2 | B,8 |] %8
V:2
 x8 | x8 | x8 | x8 | x8 | x8 | x8 | B,8 |] %8
V:3
 [B,,B,]2 [B,,B,][C,G,] [B,,F,]2 [B,,B,]2 | [C,G,]3 [B,,F,] [F,,F,]4 | %2
 [B,,F,]2 [B,,F,][C,G,] [B,,B,]2 [B,,F,]2 | [F,,F,]8 | [B,,F,]2 [B,,F,][C,G,] [B,,B,]2 [B,,B,]2 | %5
 [E,B,]3 [C,F,] [B,,F,]4 | [E,G,]2 [B,,B,][C,F,] [B,,F,]2 (F,E,) | [B,,D,]8 |] %8
V:4
 x8 | x8 | x8 | x8 | x8 | x8 | x6 F,,2 | x8 |] %8

